X: 21301
T: Kemp's Jig
R: polka
M: 2/4
K: Dmajor
f>g fe|d>e dc|BA Bc|d4|
f/e/f/g/ fe|d/c/d/e/ dc|BA B/A/B/c/|d4|
~fa ~fa|fa/g/~f2|eg eg|ed/=c/ B^c|
dA FA|dA/G/ FA|BA Bc|d4|
fa f/g/a|fa/g/ f/e/d|eg e/=f/g|ed/=c/ B^c|
dA F/>G/ A|d/A/B/A/ F/>G/ A|BA B/A/B/c/|d4||

